X: 2 % start of header
T:Torus:Taurus Tune
T:25 of 100,000,000,000,000
C: (Sid.)
O: Jeff Minter
R:Procedurally Generated
L: 1/8
K: D % scale: C major
V:1 name="Voice 1"
D16    |     |     |     | D16    |     |     |     | C16    |     |     |     | ^F16    |     |     |     | :|
V:2 name="Voice 2"
G4    | G4    | F4    | B4    | G4    | G4    | F4    | B4    | F4    | F4    | ^D4    | A4    | B4    | B4    | A4    | ^d4    | :|
V:3 name="Voice 3"
c1c1^A1e1|c1c1^A1e1|^A1^A1^G1d1|e1e1d1^g1|c1c1^A1e1|c1c1^A1e1|^A1^A1^G1d1|e1e1d1^g1|^A1^A1^G1d1|^A1^A1^G1d1|^G1^G1^F1c1|d1d1c1^f1|e1e1d1^g1|e1e1d1^g1|d1d1c1^f1|^g1^g1^f1c'1|:|
